src/1-subject/sit.svg

<svg width="1300" height="1000" fill="none" xmlns="http://www.w3.org/2000/svg"><path d="M381.5 583.5c-.116-2.497 7.476-61.465 25.004-97.5 15.049-29.175 39.06-33.545 77.179-33.979 36.975-.426 67.042 5.516 82.944 33.197C581 521.5 587 583.5 587 583.5l-2 60 8.674 23.272c4.881 13.094-7.262 26.149-20.674 22.228l11.504 29-1.5 146 16.579 12.73a20 20 0 0 1 6.727 22.383l-.306.887H563.5l-47-5 2.504-23a9.97 9.97 0 0 1-4.439-8.408L516.004 736l-29.5-65-29 65v128a10 10 0 0 1-4 8l1.996 23-50 5H368a18.564 18.564 0 0 1 5.328-21.136l17.176-14.364-2-146.5L398 691c-14.517 3.202-26.736-11.082-21.324-24.928L385.5 643.5s-2-17-4-60Z" fill="#fff"/><path d="M389.07 582.47s5.44-56.683 21.98-91.955c14.201-28.557 36.989-32.07 72.96-32.495 34.892-.416 63.264 5.4 78.27 32.495C573 519 580 583 580 583v61l8.243 26.883c1.868 6.092-2.689 12.254-9.061 12.254-.422 0-.812-.224-1.024-.59L559.28 650 546 579.09l-6.359-49.961a1.27 1.27 0 0 0-2.522.269L543 597.5l3 30.5 3 15.855 29.5 73.153-1.5 151.007 20.998 16.75a10 10 0 0 1 2.822 12.055l-1.488 3.18-75.832-10 2.09-22.01a5.003 5.003 0 0 1-5.033-5.05l1.198-128.82-31.643-67.526a4.123 4.123 0 0 0-7.477.022l-31.145 67.519-.242 129.575a4.317 4.317 0 0 1-4.348 4.31l1.991 21.98L374 900a11.67 11.67 0 0 1 2.531-14.843l20.289-17.117-2.16-151.02L422 643.5l2.5-15.5 3-30 5.395-68.664a1.228 1.228 0 0 0-2.442-.254l-6.463 50.008L411.05 650l-18.738 32.887a.494.494 0 0 1-.43.25c-6.655 0-11.417-6.433-9.472-12.798l8.09-26.484-1.44-61.385h.01Z" fill="#000"/><path d="M473.324 450c3.926 1.471 11.257 1.995 13.176 2 0 0 8.646-.072 13.682-2 5.676-2.172 8.837-4.293 12.669-8.96 2.619-3.188 4.662-8.697 5.57-11.42.358-1.076.606-2.181.795-3.3l4.277-25.32s.516-3.649.507-6c-.02-5.591-.777-8.874-3.041-14-2.325-5.265-4.358-8.083-8.614-12-4.537-4.176-7.807-6-13.683-7.968-4.561-1.528-7.345-1.993-12.162-2.032-5.17.175-7.095.5-12.029 2.032-4.938 1.649-9.979 4.57-13.816 7.968-3.836 3.398-6.521 7.42-8.614 12-2.094 4.58-3.039 9.002-3.041 14 .001 1.885.208 4.137.507 6l5.084 24.993a24.33 24.33 0 0 0 1.005 3.605c1.072 2.894 3.346 8.603 5.566 11.402 3.047 3.841 7.466 7.241 12.162 9Z" fill="#fff"/><path d="M475.432 444.258c3.298 1.281 9.456 1.738 11.068 1.742 0 0 7.263-.063 11.493-1.742 4.767-1.892 7.423-3.739 10.642-7.804 2.15-2.714 3.839-7.36 4.625-9.782.339-1.045.572-2.118.748-3.202l3.566-21.889s.433-3.178.426-5.226c-.017-4.87-.652-7.729-2.554-12.194-1.953-4.585-3.662-7.039-7.237-10.451-3.811-3.637-6.558-5.226-11.493-6.94-3.832-1.331-6.17-1.736-10.216-1.77-4.342.152-5.959.435-10.104 1.77-4.148 1.436-8.383 3.98-11.605 6.94-3.223 2.959-5.478 6.462-7.237 10.451-1.759 3.99-2.552 7.841-2.554 12.194 0 1.641.175 3.603.426 5.226l4.234 21.584c.234 1.19.535 2.363.946 3.504.924 2.57 2.789 7.37 4.61 9.75 2.56 3.346 6.272 6.307 10.216 7.839Z" fill="#000"/></svg>

<svg width="1300" height="1000" viewBox="0 0 1300 1000" fill="none" xmlns="http://www.w3.org/2000/svg">
<path d="M381.5 583.5C381.384 581.003 388.976 522.035 406.504 486C421.553 456.825 445.564 452.455 483.683 452.021C520.658 451.595 550.725 457.537 566.627 485.218C581 521.5 587 583.5 587 583.5L585 643.5L593.674 666.772C598.555 679.866 586.412 692.921 573 689L584.504 718L583.004 864L599.583 876.73C606.405 881.969 609.114 890.982 606.31 899.113L606.004 900H563.5L516.5 895L519.004 872C516.197 870.129 514.527 866.965 514.565 863.592L516.004 736L486.504 671L457.504 736V864C457.504 867.148 456.022 870.111 453.504 872L455.5 895L405.5 900H368C365.018 892.544 367.167 884.015 373.328 878.864L390.504 864.5L388.504 718L398 691C383.483 694.202 371.264 679.918 376.676 666.072L385.5 643.5C385.5 643.5 383.5 626.5 381.5 583.5Z" fill="white"/>
<path d="M389.07 582.47C389.07 582.47 394.51 525.787 411.05 490.515C425.251 461.958 448.039 458.445 484.01 458.02C518.902 457.604 547.274 463.42 562.28 490.515C573 519 580 583 580 583V644L588.243 670.883C590.111 676.975 585.554 683.137 579.182 683.137C578.76 683.137 578.37 682.913 578.158 682.547L559.28 650L546 579.09L539.641 529.129C539.56 528.495 539.021 528.02 538.383 528.02C537.639 528.02 537.055 528.657 537.119 529.398L543 597.5L546 628L549 643.855L578.5 717.008L577 868.015L597.998 884.765C601.612 887.648 602.779 892.632 600.82 896.82L599.332 900L523.5 890L525.59 867.99C522.797 868.007 520.531 865.733 520.557 862.94L521.755 734.12L490.112 666.594C489.434 665.146 487.978 664.22 486.379 664.22C484.77 664.22 483.308 665.156 482.635 666.616L451.49 734.135L451.248 863.71C451.244 866.104 449.293 868.037 446.9 868.02L448.891 890L374 900C371.112 895.097 372.182 888.826 376.531 885.157L396.82 868.04L394.66 717.02L422 643.5L424.5 628L427.5 598L432.895 529.336C432.951 528.617 432.381 528.005 431.66 528.011C431.047 528.016 430.531 528.474 430.453 529.082L423.99 579.09L411.05 650L392.312 682.887C392.224 683.042 392.06 683.137 391.882 683.137C385.227 683.137 380.465 676.704 382.41 670.339L390.5 643.855L389.06 582.47H389.07Z" fill="black"/>
<path d="M473.324 450C477.25 451.471 484.581 451.995 486.5 452C486.5 452 495.146 451.928 500.182 450C505.858 447.828 509.019 445.707 512.851 441.04C515.47 437.852 517.513 432.343 518.421 429.62C518.779 428.544 519.027 427.439 519.216 426.32L523.493 401C523.493 401 524.009 397.351 524 395C523.98 389.409 523.223 386.126 520.959 381C518.634 375.735 516.601 372.917 512.345 369C507.808 364.824 504.538 363 498.662 361.032C494.101 359.504 491.317 359.039 486.5 359C481.33 359.175 479.405 359.5 474.471 361.032C469.533 362.681 464.492 365.602 460.655 369C456.819 372.398 454.134 376.42 452.041 381C449.947 385.58 449.002 390.002 449 395C449.001 396.885 449.208 399.137 449.507 401L454.591 425.993C454.84 427.218 455.162 428.425 455.596 429.598C456.668 432.492 458.942 438.201 461.162 441C464.209 444.841 468.628 448.241 473.324 450Z" fill="white"/>
<path d="M475.432 444.258C478.73 445.539 484.888 445.996 486.5 446C486.5 446 493.763 445.937 497.993 444.258C502.76 442.366 505.416 440.519 508.635 436.454C510.785 433.74 512.474 429.094 513.26 426.672C513.599 425.627 513.832 424.554 514.008 423.47L517.574 401.581C517.574 401.581 518.007 398.403 518 396.355C517.983 391.485 517.348 388.626 515.446 384.161C513.493 379.576 511.784 377.122 508.209 373.71C504.398 370.073 501.651 368.484 496.716 366.77C492.884 365.439 490.546 365.034 486.5 365C482.158 365.152 480.541 365.435 476.396 366.77C472.248 368.206 468.013 370.75 464.791 373.71C461.568 376.669 459.313 380.172 457.554 384.161C455.795 388.151 455.002 392.002 455 396.355C455 397.996 455.175 399.958 455.426 401.581L459.66 423.165C459.894 424.355 460.195 425.528 460.606 426.669C461.53 429.239 463.395 434.039 465.216 436.419C467.776 439.765 471.488 442.726 475.432 444.258Z" fill="black"/>
</svg>
